!!!OTL: GIK GAK FER E DREIER SCHNUPFTABAK
!!!ARE: Europa, Mitteleuropa, Deutschland, Thueringen, Erfurt, Stotternheim
!!!SCT: E1270
!!!YEM: Copyright 1995, estate of Helmut Schaffrath.
**kern
*ICvox
*Ivox
*M4/4
*k[b-]
*F:
=1
{2cc
2a
=2
2cc
2a}
=3
{4f
4g
4a
4b-
=4
4cc
4cc
2a}
=5
{4f
4g
4a
4b-
=6
2cc
2a}
=7
{4f
4g
4a
4b-
=8
2cc
2a}
=9
{4f
4g
4a
4b-
=10
4cc
8cc
8cc
2a}
=11
{4dd
4cc
4b-
4a
=12
4g
4g
4f
4r}
==
!!!AGN: Ansinge -, Brauchtums - Lied, Kirchen - Fest, Sankt Martin
!!!ONB: ESAC (Essen Associative Code) Database: ERK3
!!!AMT: simple quadruple
!!!AIN: vox
!!!EED: Helmut Schaffrath
!!!EEV: 1.0
*-
